src/static/img/advantages/delievery-image.svg

<svg width="100" height="100" viewBox="0 0 100 100" fill="none" xmlns="http://www.w3.org/2000/svg">
<g>
<path d="M50 50H12.5V56.25H50V50Z" fill="#114B63"/>
<path d="M37.5 34.375H6.25V40.625H37.5V34.375Z" fill="#114B63"/>
<path d="M93.4966 51.895L84.1216 30.02C83.8814 29.4574 83.4811 28.9779 82.9706 28.641C82.46 28.3041 81.8617 28.1246 81.25 28.125H71.875V21.875C71.875 21.0462 71.5458 20.2513 70.9597 19.6653C70.3737 19.0792 69.5788 18.75 68.75 18.75H18.75V25H65.625V64.2381C64.2012 65.065 62.9551 66.1655 61.9587 67.4762C60.9622 68.7869 60.235 70.2819 59.8191 71.875H40.1809C39.4203 68.9292 37.6115 66.3619 35.0934 64.6544C32.5754 62.9468 29.521 62.2163 26.5028 62.5996C23.4846 62.983 20.7099 64.4539 18.6987 66.7368C16.6875 69.0196 15.5779 71.9576 15.5779 75C15.5779 78.0424 16.6875 80.9804 18.6987 83.2632C20.7099 85.5461 23.4846 87.017 26.5028 87.4004C29.521 87.7837 32.5754 87.0532 35.0934 85.3456C37.6115 83.6381 39.4203 81.0708 40.1809 78.125H59.8191C60.5005 80.8055 62.0557 83.1824 64.2391 84.8802C66.4224 86.5779 69.1093 87.4997 71.875 87.4997C74.6407 87.4997 77.3276 86.5779 79.5109 84.8802C81.6943 83.1824 83.2495 80.8055 83.9309 78.125H90.625C91.4538 78.125 92.2487 77.7958 92.8347 77.2097C93.4208 76.6237 93.75 75.8288 93.75 75V53.125C93.7499 52.702 93.6637 52.2835 93.4966 51.895ZM28.125 81.25C26.8889 81.25 25.6805 80.8834 24.6527 80.1967C23.6249 79.5099 22.8238 78.5338 22.3508 77.3918C21.8777 76.2497 21.7539 74.9931 21.9951 73.7807C22.2362 72.5683 22.8315 71.4547 23.7056 70.5806C24.5797 69.7065 25.6933 69.1112 26.9057 68.8701C28.1181 68.6289 29.3747 68.7527 30.5168 69.2258C31.6588 69.6988 32.6349 70.4999 33.3217 71.5277C34.0084 72.5555 34.375 73.7639 34.375 75C34.3731 76.657 33.714 78.2456 32.5423 79.4173C31.3706 80.589 29.782 81.2481 28.125 81.25ZM71.875 34.375H79.19L85.8872 50H71.875V34.375ZM71.875 81.25C70.6389 81.25 69.4305 80.8834 68.4027 80.1967C67.3749 79.5099 66.5738 78.5338 66.1008 77.3918C65.6277 76.2497 65.5039 74.9931 65.7451 73.7807C65.9863 72.5683 66.5815 71.4547 67.4556 70.5806C68.3297 69.7065 69.4433 69.1112 70.6557 68.8701C71.8681 68.6289 73.1247 68.7527 74.2668 69.2258C75.4088 69.6988 76.3849 70.4999 77.0717 71.5277C77.7584 72.5555 78.125 73.7639 78.125 75C78.1231 76.657 77.464 78.2456 76.2923 79.4173C75.1206 80.589 73.532 81.2481 71.875 81.25ZM87.5 71.875H83.9309C83.2424 69.1984 81.6852 66.8259 79.5035 65.1293C77.3217 63.4327 74.6387 62.508 71.875 62.5V56.25H87.5V71.875Z" fill="#114B63"/>
</g>
</svg>

<svg width="100" height="100" fill="none" xmlns="http://www.w3.org/2000/svg"><g fill="#114B63"><path d="M50 50H12.5v6.25H50V50ZM37.5 34.375H6.25v6.25H37.5v-6.25Z"/><path d="M93.497 51.895 84.122 30.02a3.12 3.12 0 0 0-2.872-1.895h-9.375v-6.25a3.125 3.125 0 0 0-3.125-3.125h-50V25h46.875v39.238a12.476 12.476 0 0 0-5.806 7.637H40.181a12.5 12.5 0 1 0 0 6.25h19.638a12.44 12.44 0 0 0 24.112 0h6.694A3.125 3.125 0 0 0 93.75 75V53.125c0-.423-.086-.842-.253-1.23ZM28.125 81.25a6.25 6.25 0 1 1 6.25-6.25 6.257 6.257 0 0 1-6.25 6.25Zm43.75-46.875h7.315L85.887 50H71.875V34.375Zm0 46.875a6.25 6.25 0 1 1 6.25-6.25 6.257 6.257 0 0 1-6.25 6.25ZM87.5 71.875h-3.57A12.486 12.486 0 0 0 71.876 62.5v-6.25H87.5v15.625Z"/></g></svg>
